src/icons/folder-vuex-store-open.svg

<svg fill="none" version="1.1" viewBox="0 0 24 24" xmlns="http://www.w3.org/2000/svg"><path d="m19 20h-15a2 2 0 0 1-2-2v-12a2 2 0 0 1 2-2h6l2 2h7c1.1 0 2 .9 2 2h-17v10l2.14-8h17.07l-2.28 8.5a2 2 0 0 1-1.93 1.5z" style="fill:#009688"/><g transform="matrix(.73408 0 0 .73408 12.08 9.0017)"><path d="m.2 15.99 6.32-12.75 1.58 3.11v3.27l-3.14 6.37zm15.8.01-6.32-12.75-1.58 3.11v3.27l3.13 6.37z" style="fill:#41b883"/><path d="m.2.04 3.95 7.98 2.37-4.78-1.58-3.2zm15.8 0-3.95 7.98-2.37-4.78 1.58-3.2z" style="fill:#35495e"/></g></svg>

<svg fill="none" viewBox="0 0 24 24" xmlns="http://www.w3.org/2000/svg"><path d="M19 20H4a2 2 0 0 1-2-2V6a2 2 0 0 1 2-2h6l2 2h7c1.1 0 2 .9 2 2H4v10l2.14-8h17.07l-2.28 8.5A2 2 0 0 1 19 20z" style="fill:#009688"/><path d="M.2 15.99 6.52 3.24 8.1 6.35v3.27l-3.14 6.37zM16 16 9.68 3.25 8.1 6.36v3.27L11.23 16z" style="fill:#41b883" transform="translate(12.08 9.002) scale(.73408)"/><path d="m.2.04 3.95 7.98 2.37-4.78L4.94.04zm15.8 0-3.95 7.98-2.37-4.78 1.58-3.2z" style="fill:#35495e" transform="translate(12.08 9.002) scale(.73408)"/></svg>
